X:1
T:Title
%%score { ( 1 4 ) | ( 2 3 ) }
L:1/8
Q:1/4=100
M:4/4
K:Eb
V:1 treble nm="Grand Piano"
V:4 treble 
V:2 bass 
V:3 bass 
V:1
 [EGB]2 [B,EG]>[B,FA] [EGB]2 [EGB][EGB] | [EAc]Aec [GB]2 [EG]2 | [DB]2 [DF]>[EG] [FA]2 [EG][DF] | %3
w: John~R.~Sweney * * * * *|||
 G2 cc B4 | [GB]2 [EG]>[FA] [GB]2 [GB][GB] | [EAc]Aec [GB]2 [EG]2 | [DF]2 [FB]>c d2 [FB][FB] | %7
w: ||||
 [Gc]2 [FB][CE=A] B2- [_AB]2 | [GB]2 [Ac]>[GB] [GB] .[Ge]3 | B2 A>G [EG] .[DF]3 | %10
w: |||
 G2 G>G [=Ec] [Ec]2 [EG] | [FA]2 [DB]>[DA] [EG]4 | [GB]2 [Ge]>[Bd] [Bd] .c3 | A2 d>c [Ac] .[GB]3 | %14
w: ||||
 [GB]2 [Ge]>[Ge] ec[CFA][A,CF][Q:1/4=99][Q:1/4=97][Q:1/4=96][Q:1/4=94][Q:1/4=93][Q:1/4=91][Q:1/4=90][Q:1/4=88][Q:1/4=87][Q:1/4=85][Q:1/4=84][Q:1/4=82][Q:1/4=81][Q:1/4=79][Q:1/4=78][Q:1/4=76] | %15
w: |
 [G,B,E]2 [B,EG]>[A,DF] [G,E]4 |] %16
w: |
V:2
 E,2 E,>E, E,2 E,E, | z[K:treble] C[A,CA][A,EA][K:bass] [E,E]2 [E,B,]2 | %2
 [B,,B,]2 [B,,B,]>[B,,B,] [B,,B,]2 [B,,B,][B,,B,] | [E,B,E]2 [E,A,E][E,A,E] [E,G,E]4 | %4
 [E,E]2 [E,B,]>[E,B,] [E,E]2 [E,E][E,E] | z[K:treble] C[A,CA][A,EA][K:bass] [E,E]2 [E,B,]2 | %6
 [B,,B,]2 [D,B,]>[F,=A,F] [B,F]2 [D,B,][D,B,] | [E,E]2 [F,D][F,,F,] z2 D2 | %8
 [E,E]2 [E,E]>[E,E] [E,E] .[E,B,]3 | [G,B,E]2 [F,B,D]>[E,B,E] [B,,B,] .[B,,B,]3 | %10
 [E,B,E]2 [E,B,E]>[E,B,E] [C,C] [C,G,]2 [C,C] | [F,C]2 [B,,B,]>[B,,B,] [E,B,]4 | %12
 [E,E]2 [E,B,]>[K:treble][G,E] [A,E] .[A,EA]3 | [B,DF]2 [B,FA]>[B,DA][K:bass] [E,E] .[E,E]3 | %14
 z4[K:treble] .C2[K:bass] z2 | B,,2 B,,>B,, E,4 |] %16
V:3
 x8 | A,2[K:treble] z2[K:bass] z4 | x8 | x8 | x8 | A,2[K:treble] z2[K:bass] z4 | x8 | z4 B,,4 | %8
 x8 | x8 | x8 | x8 | x7/2[K:treble] x9/2 | x4[K:bass] x4 | %14
 [E,E]2 [E,_D]>[E,D][K:treble] [A,A]-[A,EA][K:bass]A,,A,, | x8 |] %16
V:4
 x8 | x8 | x8 | x8 | x8 | x8 | x8 | z4 [B,D]2 z2 | x8 | x8 | x8 | x8 | x8 | x8 | x8 | x8 |] %16

